!!!!SEGMENT: T447_Ber-w11p132-133m583-590.krn
!!!COM: Berg, Alban (Maria Johannes)
!!!OTL: III: Rondo ritmico con Introduzione (Rhythmic Rondo with Introduction)
!!!OMV: III: Rondo Ritmico con Introduzione (Rhythmic Rondo with Introduction)
!!!example: 447
!!!work: Ber-11
!!!AGN-sub: Concerto
!!!OPR: Kammerkonzert (Chamber Concerto) for Piano, Violin and Thirteen Wind Instruments
!!!filename: T447_Ber-w11p132-133m583-590.krn
**kern	**kern	**dynam	**kern	**dynam	**kern	**dynam	**kern	**dynam	**kern	**dynam	**kern	**dynam	**kern	**dynam	**kern	**dynam	**kern	**dynam
*grp:A	*grp:A	*	*grp:B	*	*grp:B	*	*grp:B	*	*grp:B	*	*grp:B	*	*grp:B	*	*grp:B	*	*grp:B	*
*part9	*part9	*	*part8	*	*part7	*	*part6	*	*part5	*	*part4	*	*part3	*	*part2	*	*part1	*
*staff10	*staff9	*	*staff8	*	*staff7	*	*staff6	*	*staff5	*	*staff4	*	*staff3	*	*staff2	*	*staff1	*
*ICklav	*	*	*ICstr	*	*ICww	*	*ICww	*	*ICww	*	*ICww	*	*ICww	*	*ICww	*	*ICww	*
*Ipiano	*	*	*Ivioln	*	*Ifagot	*	*Iclarb	*	*Iclars	*	*Icangl	*	*Ioboe	*	*Iflt	*	*Ipicco	*
*I"Piano	*	*	*I"Violin	*	*I"Bassoon	*	*I"Bass Clarinet in Bb [sounds as written]	*	*I"Clarinet in A [sounds as written]	*	*I"English Horn [sounds as written]	*	*I"Oboe	*	*I"Flute	*	*I"Piccolo [sounds as written]	*
*I'Pno.	*	*	*I'Vln.	*	*I'Bsn.	*	*I'B. Cl.	*	*I'A Cl.	*	*I'Eng. Hn.	*	*I'Ob.	*	*I'Fl.	*	*I'Picc.	*
*clefF4	*clefG2	*	*clefG2	*	*clefF4	*	*clefF4	*	*clefG2	*	*clefG2	*	*clefG2	*	*clefG2	*	*clefG2	*
*	*	*	*	*	*	*	*	*	*I	*	*I	*	*	*	*	*	*ITrd0c0	*
*k[]	*k[]	*	*k[]	*	*k[]	*	*k[0]	*	*k[0]	*	*k[0]	*	*k[]	*	*k[]	*	*k[]	*
*	*	*	*	*	*	*	*	*	*	*	*	*	*	*	*	*	*	*
*M3/8	*M3/8	*	*M3/8	*	*M3/8	*	*M3/8	*	*M3/8	*	*M3/8	*	*M3/8	*	*M3/8	*	*M3/8	*
=1	=1	=1	=1	=1	=1	=1	=1	=1	=1	=1	=1	=1	=1	=1	=1	=1	=1	=1
!	!	!	!	!	!LO:TX:a:i:t=Kfg fortsetzend	!	!	!	!	!	!	!	!	!	!	!	!LO:TX:t=[[quarter-dot]=60]	!
8qGGnX/]i 8qE-X]i	.	.	.	.	.	.	.	.	.	.	.	.	.	.	.	.	.	.
8cn>L]i	[16An<`>^>L	.	8r	.	8r	.	4.r	.	4.r	.	4.r	.	4.r	.	8r	.	4.r	.
.	8.en^	.	.	.	.	.	.	.	.	.	.	.	.	.	.	.	.	.
!	!	!	!LO:S:a	!	!	!	!	!	!	!	!	!	!	!	!	!	!	!
.	.	.	((8qdn/ 8qfn	.	.	.	.	.	.	.	.	.	.	.	.	.	.	.
!	!	!	!LO:S:b	!	!	!	!	!	!	!	!	!	!	!	!	!	!	!
!	!	!	!	!	!	!	!	!	!	!	!	!	!	!	!	!	!	!
16AnXi`^k] 16c#X	.	.	(8ffnL 8fffn)	pp <	8r	.	.	.	.	.	.	.	.	.	8r	.	.	.
[8.dn^J	.	.	.	.	.	.	.	.	.	.	.	.	.	.	.	.	.	.
!	!	!	!LO:TX:b:i:t=poco	!	!	!	!	!	!	!	!	!	!	!	!	!	!	!
!	!	!	!LO:S:a	!	!	!	!	!	!	!	!	!	!	!	!	!	!	!
.	.	.	(8qdn/ 8qf#X	.	.	.	.	.	.	.	.	.	.	.	.	.	.	.
.	[8fn^>J	.	[8ff#XJ [8fff#X)	.	([8GGn^^	p	.	.	.	.	.	.	.	.	16r	.	.	.
*	*	*	*	*	*	*	*	*	*	*	*	*	*	*	*neben	*	*	*
*	*	*	*	*	*	*	*	*	*	*	*	*	*	*	*col	*	*	*
!	!	!	!	!	!	!	!	!	!	!	!	!	!	!	!LO:TX:a:B:t=N	!	!	!
.	.	.	.	[[	.	.	.	.	.	.	.	.	.	.	(16ee-X	p	.	.
=2	=2	=2	=2	=2	=2	=2	=2	=2	=2	=2	=2	=2	=2	=2	=2	=2	=2	=2
!	!	!	!	!	!	!	!	!	!	!	!	!	!	!	!	!	!	!
8dL]	16.fLL]	<	8ff#] 8fff#]))	>	8.GGL]	.	(4BnX'~	p	4.r	.	8r'~	.	(4a#X'~	p	16eenLL	.	4.r	.
.	.	.	.	.	.	.	.	.	.	.	.	.	.	.	16ggn	.	.	.
!	!LO:TX:a:i:t=wieder sehr scharf rhythmisiert	!	!	!	!	!	!	!	!	!	!	!	!	!	!	!	!	!
.	[32en^JJk	.	.	]]	.	.	.	.	.	.	.	.	.	.	.	.	.	.
[8c#X^	4e]	.	(4ffn [4fffn	pp	.	.	.	.	.	.	8r	.	.	.	16bbn	.	.	.
.	.	.	.	.	8.A-X^^J)	.	.	.	.	.	.	.	.	.	16ddd#X	.	.	.
*	*	*	*	*	*	*	*	*	*	*	*	*	*	*	*	*	*	*
!	!	!	!	!	!	!	!	!	!	!	!LO:T:a	!	!	!	!	!	!	!
16.c#L]	.	.	.	<	.	.	8E-')	.	.	.	8cnX']	p	16dn')	.	16eeen	.	.	.
.	.	.	.	.	.	.	.	.	.	.	.	.	16r	.	16cccnJJ)	.	.	.
*	*	*	*	*	*	*	*	*	*	*	*	*	*	*	*Xcol	*	*	*
[32dn^JJk	.	.	.	.	.	.	.	.	.	.	.	.	.	.	.	.	.	.
=3	=3	=3	=3	=3	=3	=3	=3	=3	=3	=3	=3	=3	=3	=3	=3	=3	=3	=3
!	!	!	!LO:TX:b:i:t=poco	!	!	!	!	!	!	!	!	!	!	!	!	!	!	!
16.dLL]	[8en^L	.	8fffL]	.	4.r	.	4.r	.	4.r	.	4.r	.	4.r	.	4.r	.	8r	.
32c#X^Jk	.	.	.	.	.	.	.	.	.	.	.	.	.	.	.	.	.	.
!	!	!	!	!	!	!	!	!	!	!	!	!	!	!	!	!	!	!LO:DY:t=%s (quasi Echo)
*	*	*	*	*	*	*	*	*	*	*	*	*	*	*	*	*	*8va	*
8..dn^	16.eL]	.	8fff#XJ)	[	.	.	.	.	.	.	.	.	.	.	.	.	(16eeenLL	pp
.	.	.	.	.	.	.	.	.	.	.	.	.	.	.	.	.	16cccnJJ)	.
.	32fn^Jk	.	.	.	.	.	.	.	.	.	.	.	.	.	.	.	.	.
.	[8en^J	.	8r	.	.	.	.	.	.	.	.	.	.	.	.	.	8r	.
32cn^Jkk	.	[	.	.	.	.	.	.	.	.	.	.	.	.	.	.	.	.
=4	=4	=4	=4	=4	=4	=4	=4	=4	=4	=4	=4	=4	=4	=4	=4	=4	=4	=4
*	*	*	*8va	*	*	*	*	*	*	*	*	*	*	*	*	*	*	*
8..c#X^L	16.eLL]	.	(16fffnLL	pp	8r	.	4.r	.	4.r	.	8r	.	8r	.	4.r	.	16r	.
!	!	!	!	!	!	!	!	!	!	!	!	!	!	!	!	!	!	!
.	.	.	16fff#X	<	.	.	.	.	.	.	.	.	.	.	.	.	(16eeenLL	<
.	32B-X^Jk	mf	.	.	.	.	.	.	.	.	.	.	.	.	.	.	.	.
!	!LO:TX:b:i:t=(marc.)	!	!	!	!	!	!	!	!	!	!	!	!	!	!	!	!	!
.	[8a-X^	.	16gggn	.	16r	.	.	.	.	.	8r	.	8r	.	.	.	16cccnJJ)	.
!	!	!	!	!	!	!LO:DY:t=meno %s	!	!	!	!	!	!	!	!	!	!	!	!
.	.	.	16bbbn	.	(8Gn^^L	p	.	.	.	.	.	.	.	.	.	.	16r	.
*clefG2	*	*	*	*	*	*	*	*	*	*	*	*	*	*	*	*	*	*
!LO:TX:b:i:t=(marc.)	!	!	!	!	!	!	!	!	!	!	!	!	!	!	!	!	!	!
32cn^kk	.	.	.	.	.	.	.	.	.	.	.	.	.	.	.	.	.	.
!	!	!	!	!	!	!	!	!	!	!	!	!LO:DY:t=meno %s	!	!LO:DY:t=meno %s	!	!	!	!
[8f#X^J [8bn	16.a-L]	.	16dddd#X	.	.	.	.	.	.	.	(8dn'~	p	(8a#X'~	p	.	.	16r	.
*	*	*	*	*	*	*	*	*	*	*	*	*	*	*	*	*	*neben	*
!	!	!	!	!	!	!	!	!	!	!	!	!	!	!	!	!	!LO:TX:a:B:t=N	!
.	.	.	16eeeenJJ	.	[16a-X^^Jk	.	.	.	.	.	.	.	.	.	.	.	(16gggnLL	.
.	32B-X^JJk	.	.	[[	.	.	.	.	.	.	.	.	.	.	.	.	.	.
=5	=5	=5	=5	=5	=5	=5	=5	=5	=5	=5	=5	=5	=5	=5	=5	=5	=5	=5
16.f#LL] 16.b]	8..a-X^L	.	16ccccnLL	>	16a-])	.	4.r	.	4.r	.	8e-X'~)	.	8ddn'~)	.	4.r	.	16eee-XJJ)	.
.	.	.	16aaan')	.	16r	.	.	.	.	.	.	.	.	.	.	.	16r	.
32Bn^JJk	.	.	.	.	.	.	.	.	.	.	.	.	.	.	.	.	.	.
!	!	!LO:HP:b	!	!	!	!	!	!	!	!	!	!	!	!	!	!	!	!
[4gn^ [4ccn	.	> ]	16fffn'	.	8r	.	.	.	.	.	8r	.	8r	.	.	.	(16aaa#XLL	.
*Xcol	*	*	*	*	*	*	*	*	*	*	*	*	*	*	*	*	*	*
.	.	.	16ddd-X'	.	.	.	.	.	.	.	.	.	.	.	.	.	16fff#XJJ	.
*	*	*	*X8va	*	*	*	*	*	*	*	*	*	*	*	*	*	*	*
.	32B-X^kk	.	.	.	.	.	.	.	.	.	.	.	.	.	.	.	.	.
.	8a-X^J	> ]	16bb-X'	.	8r	.	.	.	.	.	8r	.	8r	.	.	.	16dddn)	.
*	*Xcol	*	*	*	*	*	*	*	*	*	*	*	*	*	*	*	*	*
.	.	.	16gg-X'JJ	]	.	.	.	.	.	.	.	.	.	.	.	.	16r	.
=6	=6	=6	=6	=6	=6	=6	=6	=6	=6	=6	=6	=6	=6	=6	=6	=6	=6	=6
!	!	!	!	!	!	!	!	!	!	!	!	!	!	!	!LO:TX:a:i:t=Fag. fortsetzend	!	!	!LO:DY:t=poco %s
*	*	*	*	*	*	*	*	*	*	*	*	*	*	*	*	*	*haupt	*
*	*	*	*	*	*	*	*	*	*	*	*	*	*	*	*	*	*col	*
!	!	!	!	!	!	!	!	!	!	!	!	!	!	!	!	!	!LO:TX:a:B:t=H	!
16.gLL] 16.cc]	(16.B-XLL	p	16ddn'LL	<	4.r	.	4.r	.	4.r	.	8r	.	8r	.	16r	.	(16dddd-XKL	f
.	.	.	16bn'	.	.	.	.	.	.	.	.	.	.	.	(8.gn^^L	p	8bbb-X)	.
(32Bnk	32a-Xk)	.	.	.	.	.	.	.	.	.	.	.	.	.	.	.	.	.
!	!	!	!	!	!	!	!	!	!	!	!	!	!	!	!	!	!	!
!	!	!	!	!	!	!	!	!	!	!	!	!	!	!	!	!	!	!
!LO:TX:b:i:t=dimin.	!LO:TX:b:i:t=meno marc.	!LO:HP:a	!	!	!	!	!	!	!	!	!	!	!	!	!	!	!	!
16.gn 16.ccn)	(16.B-X	>	16g#X'	.	.	.	.	.	.	.	(8.bnX'~L	pp <	(8.dddn'~L	pp <	.	.	.	.
.	.	.	16en'	.	.	.	.	.	.	.	.	.	.	.	.	.	(16ggg-XL	.
*	*	*	*	*	*	*	*	*	*	*	*	*	*	*	*	*	*X8va	*
(32Bnk	32a-Xk)	.	.	.	.	.	.	.	.	.	.	.	.	.	.	.	.	.
16.gn 16.ccn)	(16.B-X	.	16c#X'	.	.	.	.	.	.	.	.	.	.	.	[8aa-X^^J	.	16eee-X	.
.	.	.	16B-X'JJ	[	.	.	.	.	.	.	16ddn'~Jk)	.	16ee-X'~Jk)	.	.	.	[16cccnJJ	.
(32BnJJk	32a-XJJk)	.	.	.	.	.	.	.	.	.	.	[[	.	[[	.	.	.	.
=7	=7	=7	=7	=7	=7	=7	=7	=7	=7	=7	=7	=7	=7	=7	=7	=7	=7	=7
16.gnLL 16.ccn)	(16.B-XLL	.	[4.Gn	fp > ]	4.r	.	4.r	.	4.r	.	(8ddnL	.	(8eenL	.	16aa-LL]	.	16cccKL])	.
.	.	.	.	.	.	.	.	.	.	.	.	.	.	.	16aan'JJ)	.	(8aan	.
((32Bnk	32a-Xk)	.	.	.	.	.	.	.	.	.	.	.	.	.	.	.	.	.
!	!LO:TX:b:i:t=dolce	!	!	!	!	!	!	!	!	!	!	!	!	!	!	!	!	!
*ped	*	*	*	*	*	*	*	*	*	*	*	*	*	*	*	*	*	*
16gn' 16ccn)	((16B-X	.	.	.	.	.	.	.	.	.	8dd-X^)	<	8dd-X^)	<	8r	.	.	.
16B-X' 16en	16gn' 16ccn)	p	.	.	.	.	.	.	.	.	.	.	.	.	.	.	[16ffn^Jk	fp
*	*	*	*	*	*	*	*	*	*	*	*	*	*haupt	*	*	*	*	*
*	*	*	*	*	*	*	*	*	*	*	*	*	*col	*	*	*	*	*
!	!	!	!	!	!	!	!	!	!	!	!	!	!LO:TX:a:B:t=H	!	!	!	!	!
16B-' 16e	16g' 16cc	.	.	.	.	.	.	.	.	.	16ccn^L	.	8ddn^J	fp [	8r	.	16ff])	.
*	*	*	*	*	*	*	*	*	*	*	*col	*	*	*	*	*	*Xcol	*
*	*	*	*	*	*	*	*	*	*	*	*haupt	*	*	*	*	*	*	*
!	!	!	!	!	!	!	!	!	!	!	!LO:TX:a:B:t=H	!	!	!	!	!	!	!
16B-'JJ 16e	16g'JJ 16cc	.	.	.	.	.	.	.	.	.	[16bnX^JJ	fp [	.	.	.	.	16r	.
=8	=8	=8	=8	=8	=8	=8	=8	=8	=8	=8	=8	=8	=8	=8	=8	=8	=8	=8
16B-X'LL 16en	16gn'LL 16ccn	.	4.r	.	4.r	.	4.r	.	8r	.	16bKL]	.	8g#X^L	fp	4.r	.	4.r	.
!	!	!	!	!	!	!	!	!	!	!	!	!	!	!	!	!	!	!
16B-'JJ 16e	16g'JJ 16cc	.	.	.	.	.	.	.	.	.	8en^	fp	.	.	.	.	.	.
*	*	*	*	*	*	*	*	*	*haupt	*	*	*	*	*	*	*	*	*
!	!	!	!	!	!	!	!	!	!LO:TX:a:B:t=H	!	!	!	!	!	!	!	!	!
[4B-~ [4e)	[4g'~ [4cc)	.	.	.	.	.	.	.	8.c#^	mp	.	.	8c#X^J	fp	.	.	.	.
*	*	*	*	*	*	*	*	*	*	*	*	*	*Xcol	*	*	*	*	*
!	!	!	!	!	!	!	!	!	!	!	!LO:TX:b:B:i:t=mfpp	!	!	!	!	!	!	!
.	.	.	.	.	.	.	.	.	.	.	16B-^Jk	mfpp	.	.	.	.	.	.
*	*	*	*	*	*	*	*	*	*	*	*Xcol	*	*	*	*	*	*	*
.	.	.	.	.	.	.	.	.	.	.	8r	.	8r	.	.	.	.	.
.	.	.	.	.	.	.	.	.	16r	.	.	.	.	.	.	.	.	.
=	=	=	=	=	=	=	=	=	=	=	=	=	=	=	=	=	=	=
*-	*-	*-	*-	*-	*-	*-	*-	*-	*-	*-	*-	*-	*-	*-	*-	*-	*-	*-
!!!system-decoration: [(s1,s2,s3,s4,s5,s6,s7)][(s8)][({(s9,s10)})]
!!!RDF**kern: i = editorial accidental, paren
!!!RDF**kern: < = below
!!!RDF**kern: > = above
!!!RDF**dynam: > = dimin.
!!!CDT: 1885/02/09-1935/12/24
!!!CBL: Vienna, Austria
!!!CDL: Vienna, Austria
!!!CNT: Austrian
!!!AGN: Orchestral
!!!MCN: Scherchen, Hermann
!!!MDT: 1927/03/27
!!!MGN: unknown
!!!MLC: Berlin, Germany
!!!MPD: 1927
!!!MPN:
!!!ODT: 1925
!!!PDT: 1925
!!!excerpt-start-measure: 583
!!!excerpt-end-measure: 590
!!!excerpt-start-time: 3:49
!!!excerpt-end-time: 3:59
!!!EEV: 2020/01/27
!!!EED2: Bryan Bell
!!!EEV2: 2022/12/06
!!!Suter_Work_ID: Ber-11
!!!Suter_Example_Number: 447
!!!Suter_Example_ID: Ber-11/132-133/583-590, début, suite et fin
!!!Premiere_Location: Berlin,Germany
!!!Other_Tsigs: none
!!!Full_Unit_Duration: 16:35
!!!First_Publication_Year: 1925
!!!First_Public_Performance_Year: 1927
!!!Example_Total_Measures: 8
!!!Example_Timestamp_Duration: 10
!!!Example_Start_Tsig_Type: simple triple
!!!Example_Start_Tsig_Mean_Beat_Rate: 180
!!!Example_Start_Tsig_Beat_Rate: 180
!!!Example_Start_Tsig_Beat: eighth
!!!Example_Start_Tsig: 3/8
!!!Example_Start_Timestamp: 3:49
!!!Example_Start_Tempo_Expression: [Tempo (Rondo ritmico)]
!!!Example_Start_Notated_Beat_Rate: [60]
!!!Example_Start_Notated_Beat: [dotted-quarter]
!!!Example_Start_Measure: 103(583)
!!!Example_Metadata_Validated: Y
!!!Example_End_Timestamp: 3:59
!!!Example_End_Measure: 110(590)
!!!Example_Dataset: T
!!!Editorial_Comments: Start Notated Beat and Example Start Notated Beat Rate [dotted-quarter=60] based on most recent notated beat rate (SWFU, m. 99). Example Start Tempo Expression [Tempo (Rondo ritmico)] based on most recent notated tempo expressions (SWFU, m. 99 and m. 55). Editorial Note: The SWFU begins on m. 481 of the score and ends on m. 785.
!!!Death_Place: Vienna,Austria
!!!Death_Date: 24-Dec-1935
!!!Changing_Tsig: no
!!!Birth_Place: Vienna,Austria
!!!Birth_Date: 9-Feb-1885
!!!Audio_Example_Quarter_Note_Tempo:
!!!Audio_Example_Duration:
!!!ONB: Converted from MusicXML on 2020/01/27
